icons/circle/48/colobot.svg

<svg xmlns="http://www.w3.org/2000/svg" viewBox="0 0 48 48">
  <defs>
    <linearGradient id="a" x1="1" x2="47" gradientUnits="userSpaceOnUse" gradientTransform="rotate(-90 24 24)">
      <stop stop-color="#efc429"/>
      <stop offset="1" stop-color="#f5cb37"/>
    </linearGradient>
    <radialGradient id="b" cx="24" cy="24" r="15" gradientUnits="userSpaceOnUse">
      <stop stop-color="#776e53"/>
      <stop offset="1" stop-color="#6f664d"/>
    </radialGradient>
  </defs>
  <path d="M36.31 5c5.859 4.062 9.688 10.831 9.688 18.5 0 12.426-10.07 22.5-22.5 22.5-7.669 0-14.438-3.828-18.5-9.688a23.24 23.24 0 0 0 3.781 4.969 22.923 22.923 0 0 0 15.469 5.969c12.703 0 23-10.298 23-23a22.92 22.92 0 0 0-5.969-15.469A23.216 23.216 0 0 0 36.31 5zm4.969 3.781A22.911 22.911 0 0 1 47.498 24.5c0 12.703-10.297 23-23 23a22.909 22.909 0 0 1-15.719-6.219C12.939 45.425 18.662 48 24.998 48c12.703 0 23-10.298 23-23 0-6.335-2.575-12.06-6.719-16.219z" opacity=".05"/>
  <path d="M41.28 8.781a22.923 22.923 0 0 1 5.969 15.469c0 12.703-10.297 23-23 23A22.92 22.92 0 0 1 8.78 41.281 22.911 22.911 0 0 0 24.499 47.5c12.703 0 23-10.298 23-23A22.909 22.909 0 0 0 41.28 8.781z" opacity=".1"/>
  <path d="M31.25 2.375C39.865 5.529 46 13.792 46 23.505c0 12.426-10.07 22.5-22.5 22.5-9.708 0-17.971-6.135-21.12-14.75a23 23 0 0 0 44.875-7 23 23 0 0 0-16-21.875z" opacity=".2"/>
  <path d="M24 1c12.703 0 23 10.297 23 23S36.703 47 24 47 1 36.703 1 24 11.297 1 24 1z" fill="url(#a)"/>
  <path d="M40.03 7.531A22.922 22.922 0 0 1 45.999 23c0 12.703-10.297 23-23 23A22.92 22.92 0 0 1 7.53 40.031C11.708 44.322 17.54 47 23.999 47c12.703 0 23-10.298 23-23 0-6.462-2.677-12.291-6.969-16.469z" opacity=".1"/>
  <path d="M23 10a13 13 0 0 0-13 13h7.266A8 8 0 0 1 23 17.26V10m4 0v7.266A8 8 0 0 1 32.74 23H40a13 13 0 0 0-13-13m-2 10a5 5 0 0 0-5 5 5 5 0 0 0 5 5 5 5 0 0 0 5-5 5 5 0 0 0-5-5zm-15 7a13 13 0 0 0 13 13v-7.266A8 8 0 0 1 17.26 27H10m22.734 0A8 8 0 0 1 27 32.74V40a13 13 0 0 0 13-13h-7.266z" opacity=".1"/>
  <path d="M22 9A13 13 0 0 0 9 22h7.266A8 8 0 0 1 22 16.26V9zm4 0v7.266A8 8 0 0 1 31.74 22H39A13 13 0 0 0 26 9zm-2 10a5 5 0 0 0-5 5 5 5 0 0 0 5 5 5 5 0 0 0 5-5 5 5 0 0 0-5-5zM9 26a13 13 0 0 0 13 13v-7.266A8 8 0 0 1 16.26 26H9zm22.734 0A8 8 0 0 1 26 31.74V39a13 13 0 0 0 13-13h-7.266z" fill="url(#b)"/>
</svg>

<svg xmlns="http://www.w3.org/2000/svg" viewBox="0 0 48 48">
 <defs>
  <linearGradient id="linearGradient3764" x1="1" x2="47" gradientUnits="userSpaceOnUse" gradientTransform="matrix(0,-1,1,0,-1.5e-6,47.999998)">
   <stop style="stop-color:#efc429;stop-opacity:1"/>
   <stop offset="1" style="stop-color:#f5cb37;stop-opacity:1"/>
  </linearGradient>
  <radialGradient id="radialGradient4187" cx="24" cy="24" r="15" gradientUnits="userSpaceOnUse">
   <stop style="stop-color:#776e53;stop-opacity:1"/>
   <stop offset="1" style="stop-color:#6f664d;stop-opacity:1"/>
  </radialGradient>
 </defs>
 <g>
  <path d="m 36.31 5 c 5.859 4.062 9.688 10.831 9.688 18.5 c 0 12.426 -10.07 22.5 -22.5 22.5 c -7.669 0 -14.438 -3.828 -18.5 -9.688 c 1.037 1.822 2.306 3.499 3.781 4.969 c 4.085 3.712 9.514 5.969 15.469 5.969 c 12.703 0 23 -10.298 23 -23 c 0 -5.954 -2.256 -11.384 -5.969 -15.469 c -1.469 -1.475 -3.147 -2.744 -4.969 -3.781 z m 4.969 3.781 c 3.854 4.113 6.219 9.637 6.219 15.719 c 0 12.703 -10.297 23 -23 23 c -6.081 0 -11.606 -2.364 -15.719 -6.219 c 4.16 4.144 9.883 6.719 16.219 6.719 c 12.703 0 23 -10.298 23 -23 c 0 -6.335 -2.575 -12.06 -6.719 -16.219 z" style="opacity:0.05"/>
  <path d="m 41.28 8.781 c 3.712 4.085 5.969 9.514 5.969 15.469 c 0 12.703 -10.297 23 -23 23 c -5.954 0 -11.384 -2.256 -15.469 -5.969 c 4.113 3.854 9.637 6.219 15.719 6.219 c 12.703 0 23 -10.298 23 -23 c 0 -6.081 -2.364 -11.606 -6.219 -15.719 z" style="opacity:0.1"/>
  <path d="m 31.25 2.375 c 8.615 3.154 14.75 11.417 14.75 21.13 c 0 12.426 -10.07 22.5 -22.5 22.5 c -9.708 0 -17.971 -6.135 -21.12 -14.75 a 23 23 0 0 0 44.875 -7 a 23 23 0 0 0 -16 -21.875 z" style="opacity:0.2"/>
 </g>
 <g>
  <path d="m 24 1 c 12.703 0 23 10.297 23 23 c 0 12.703 -10.297 23 -23 23 -12.703 0 -23 -10.297 -23 -23 0 -12.703 10.297 -23 23 -23 z" style="fill:url(#linearGradient3764);fill-opacity:1"/>
 </g>
 <g>
  <path d="m 40.03 7.531 c 3.712 4.084 5.969 9.514 5.969 15.469 0 12.703 -10.297 23 -23 23 c -5.954 0 -11.384 -2.256 -15.469 -5.969 4.178 4.291 10.01 6.969 16.469 6.969 c 12.703 0 23 -10.298 23 -23 0 -6.462 -2.677 -12.291 -6.969 -16.469 z" style="opacity:0.1"/>
 </g>
 <path d="M 23 10 A 13 13 0 0 0 10 23 l 7.266 0 A 8 8 0 0 1 23 17.26 L 23 10 m 4 0 0 7.266 A 8 8 0 0 1 32.74 23 L 40 23 A 13 13 0 0 0 27 10 m -2 10 a 5 5 0 0 0 -5 5 5 5 0 0 0 5 5 5 5 0 0 0 5 -5 5 5 0 0 0 -5 -5 z m -15 7 a 13 13 0 0 0 13 13 l 0 -7.266 A 8 8 0 0 1 17.26 27 L 10 27 m 22.734 0 A 8 8 0 0 1 27 32.74 L 27 40 A 13 13 0 0 0 40 27 l -7.266 0 z" style="fill:#000;opacity:0.1;fill-opacity:1;stroke:none"/>
 <path d="M 22 9 A 13 13 0 0 0 9 22 L 16.266 22 A 8 8 0 0 1 22 16.26 L 22 9 z M 26 9 L 26 16.266 A 8 8 0 0 1 31.74 22 L 39 22 A 13 13 0 0 0 26 9 z M 24 19 A 5 5 0 0 0 19 24 A 5 5 0 0 0 24 29 A 5 5 0 0 0 29 24 A 5 5 0 0 0 24 19 z M 9 26 A 13 13 0 0 0 22 39 L 22 31.734 A 8 8 0 0 1 16.26 26 L 9 26 z M 31.734 26 A 8 8 0 0 1 26 31.74 L 26 39 A 13 13 0 0 0 39 26 L 31.734 26 z" style="fill:url(#radialGradient4187);opacity:1;fill-opacity:1;stroke:none"/>
</svg>
